X:7
T:Wohlfahrt 7 Op 74 No 1
C:Franz Wohlfahrt / K.H. Aiquoni
L:1/16
Q:1/4=60
M:6/8
I:linebreak $
K:G
"G" (edBdBd)"C" (cecece) |"G" (dBdBce) (dBdgb2) |"D7" (cAcABd) (cAcfa2) | 
"G" (BGFAGB)"D7" (AcBdce) |$"G" (dBdBdB)"C" (cecece) |"G" (dBdBce) (dBdgb2) | 
"D" fabagf"A7" eabage |"D" dAdA^cA"D7" eAdA=cA |$"G" (dBdBdB)"C" (cecece) |"G" (dBdBce) (dBdgb2) | 
"D7" (cAcABd) (cAcfa2) |"G" (BGFAGB)"D7" (AcBdce) |$"G" (dBdBdB)"C" (cecece) | 
"G" (dBdBce) (dBdgb2) |"D/A" babafa"A7" babage |"D" d2^cdcd ededed |$"D7" (=cdcdcf) (babaf)c | 
"G" (Bd^cdcd) (ededBG) |"D7" (=cdcdcf) (babaf)c |"G" (Bd^cdcd) (ededBG) |$"C" (EGEGEG) (AGFGAB) | 
"C??" (cBcBcB) (cBcBcB) |"D7" cdeded"G" Bdeded |"D7" Ad^cdcd ededed |$"D7" =cdcdcd babafc | 
"G" Bd^cdcd ededBG |"D7" =cdcdcd babafc |"G" Bd^cdcd ededBG |$"C" (EGEGEG) (AGFGAB) | 
(cBcBcB) (cBABcd) | (ededBd) (BdedBd) |"D7" (Adeded) (ededed) |$"G" (edBdBd)"C" (cecece) | 
"G" (dBdBce) (dBdgb2) |"D7" (cAcABd) (cAcfa2) |"G" (BGFAGB)"D7" (AcBdce) |$ 
"G" (dBdBdB)"C" (cecece) |"G" (dBdBce) (dBdgb2) | Aceded cfbaba | gdBGDB, G,2 z4 |] 



